X: 2
T: The Murray River Jig
C: Graham Townsend
M: 6/8
L: 1/8
R: jig
K: A Major
|: AB |
c2 c cBA | E3 EAB | c2 c dcB | F3 FBc | 
d2 d dcB | g2 g g2 f |[1 fee e^de | fed c :|[2 e2 e dcB | A3 A2 ||
|: D |
C2 A, A,CE | D=G,G, G,2 B, | A,CE AGA | BEE E2 D |
C2 A, A,CE | D2 =G, G,2 F | E2 A GAB |[1 cAA A2 :|[2 cAA A- ||
